Newaita-dark/apps/24/accessories-ebook-reader.svg

<?xml version="1.0" encoding="UTF-8"?>
<svg xmlns="http://www.w3.org/2000/svg" xmlns:xlink="http://www.w3.org/1999/xlink" width="24pt" height="24pt" viewBox="0 0 24 24" version="1.1">
<defs>
<linearGradient id="linear0" gradientUnits="userSpaceOnUse" x1="254" y1="233.5" x2="254" y2="254.666672" gradientTransform="matrix(0.0468795,0,0,0.0468795,-2.97685,10.079089)">
<stop offset="0" style="stop-color:rgb(0%,0%,0%);stop-opacity:0.27451;"/>
<stop offset="1" style="stop-color:rgb(0%,0%,0%);stop-opacity:0;"/>
</linearGradient>
<radialGradient id="radial0" gradientUnits="userSpaceOnUse" cx="450.908936" cy="189.579361" fx="450.908936" fy="189.579361" r="21.166656" gradientTransform="matrix(0.000000130628,-0.0585994,-0.105479,-0.0000000761539,40.09027,47.696499)">
<stop offset="0" style="stop-color:rgb(0%,0%,0%);stop-opacity:0.313725;"/>
<stop offset="0.222222" style="stop-color:rgb(0%,0%,0%);stop-opacity:0.27451;"/>
<stop offset="1" style="stop-color:rgb(0%,0%,0%);stop-opacity:0;"/>
</radialGradient>
<radialGradient id="radial1" gradientUnits="userSpaceOnUse" cx="450.908936" cy="189.579361" fx="450.908936" fy="189.579361" r="21.166656" gradientTransform="matrix(-0.000000130628,0.0585994,0.105479,0.0000000761539,-16.275496,-5.645609)">
<stop offset="0" style="stop-color:rgb(0%,0%,0%);stop-opacity:0.313725;"/>
<stop offset="0.222222" style="stop-color:rgb(0%,0%,0%);stop-opacity:0.27451;"/>
<stop offset="1" style="stop-color:rgb(0%,0%,0%);stop-opacity:0;"/>
</radialGradient>
<radialGradient id="radial2" gradientUnits="userSpaceOnUse" cx="450.908936" cy="189.579361" fx="450.908936" fy="189.579361" r="21.166656" gradientTransform="matrix(-0.000000130628,-0.0585994,0.105479,-0.0000000761539,-16.275496,47.696499)">
<stop offset="0" style="stop-color:rgb(0%,0%,0%);stop-opacity:0.313725;"/>
<stop offset="0.222222" style="stop-color:rgb(0%,0%,0%);stop-opacity:0.27451;"/>
<stop offset="1" style="stop-color:rgb(0%,0%,0%);stop-opacity:0;"/>
</radialGradient>
<radialGradient id="radial3" gradientUnits="userSpaceOnUse" cx="450.908936" cy="189.579361" fx="450.908936" fy="189.579361" r="21.166656" gradientTransform="matrix(0.000000130628,0.0585994,-0.105479,0.0000000761539,40.090268,-5.64561)">
<stop offset="0" style="stop-color:rgb(0%,0%,0%);stop-opacity:0.313725;"/>
<stop offset="0.222222" style="stop-color:rgb(0%,0%,0%);stop-opacity:0.27451;"/>
<stop offset="1" style="stop-color:rgb(0%,0%,0%);stop-opacity:0;"/>
</radialGradient>
<linearGradient id="linear1" gradientUnits="userSpaceOnUse" x1="42.333332" y1="32.416664" x2="254" y2="32.416664" gradientTransform="matrix(0.0468795,0,0,0.0468795,0,10.079087)">
<stop offset="0" style="stop-color:rgb(93.333333%,93.333333%,93.333333%);stop-opacity:1;"/>
<stop offset="1" style="stop-color:rgb(87.843137%,87.843137%,87.843137%);stop-opacity:1;"/>
</linearGradient>
<linearGradient id="linear2" gradientUnits="userSpaceOnUse" x1="465.666656" y1="21.833334" x2="254" y2="21.833334" gradientTransform="matrix(0.0468795,0,0,0.0468795,0,10.079087)">
<stop offset="0" style="stop-color:rgb(87.843137%,87.843137%,87.843137%);stop-opacity:1;"/>
<stop offset="1" style="stop-color:rgb(74.117647%,74.117647%,74.117647%);stop-opacity:1;"/>
</linearGradient>
<linearGradient id="linear3" gradientUnits="userSpaceOnUse" x1="840" y1="1175.118164" x2="840" y2="135.118118" gradientTransform="matrix(0.264583,0,0,0.264583,-10.583328,-209.708084)">
<stop offset="0" style="stop-color:rgb(93.72549%,32.54902%,31.372549%);stop-opacity:1;"/>
<stop offset="1" style="stop-color:rgb(89.803922%,45.098039%,45.098039%);stop-opacity:1;"/>
</linearGradient>
</defs>
<g id="surface1">
<path style=" stroke:none;fill-rule:nonzero;fill:url(#linear0);" d="M 3.472656 21.027344 L 20.339844 21.027344 L 20.339844 22.019531 L 3.472656 22.019531 Z M 3.472656 21.027344 "/>
<path style=" stroke:none;fill-rule:nonzero;fill:url(#radial0);" d="M 20.339844 21.027344 L 22.328125 21.027344 L 22.328125 20.03125 L 20.339844 20.03125 Z M 20.339844 21.027344 "/>
<path style=" stroke:none;fill-rule:nonzero;fill:url(#radial1);" d="M 3.472656 21.027344 L 1.488281 21.027344 L 1.488281 22.019531 L 3.472656 22.019531 Z M 3.472656 21.027344 "/>
<path style=" stroke:none;fill-rule:nonzero;fill:url(#radial2);" d="M 3.472656 21.027344 L 1.488281 21.027344 L 1.488281 20.03125 L 3.472656 20.03125 Z M 3.472656 21.027344 "/>
<path style=" stroke:none;fill-rule:nonzero;fill:url(#radial3);" d="M 20.339844 21.027344 L 22.328125 21.027344 L 22.328125 22.019531 L 20.339844 22.019531 Z M 20.339844 21.027344 "/>
<path style=" stroke:none;fill-rule:nonzero;fill:url(#linear1);" d="M 2.976562 2.171875 L 20.839844 2.171875 C 21.386719 2.171875 21.832031 2.617188 21.832031 3.164062 L 21.832031 20.03125 C 21.832031 20.582031 21.386719 21.027344 20.839844 21.027344 L 2.976562 21.027344 C 2.429688 21.027344 1.984375 20.582031 1.984375 20.03125 L 1.984375 3.164062 C 1.984375 2.617188 2.429688 2.171875 2.976562 2.171875 Z M 2.976562 2.171875 "/>
<path style=" stroke:none;fill-rule:nonzero;fill:url(#linear2);" d="M 11.90625 2.171875 L 11.90625 21.027344 L 20.839844 21.027344 C 21.386719 21.027344 21.832031 20.582031 21.832031 20.03125 L 21.832031 3.164062 C 21.832031 2.613281 21.386719 2.171875 20.839844 2.171875 Z M 11.90625 2.171875 "/>
<path style=" stroke:none;fill-rule:nonzero;fill:rgb(0%,0%,0%);fill-opacity:0.196078;" d="M 2.976562 21.027344 C 2.425781 21.027344 1.984375 20.585938 1.984375 20.035156 L 1.984375 19.847656 C 1.984375 20.398438 2.425781 20.839844 2.976562 20.839844 L 20.839844 20.839844 C 21.386719 20.839844 21.832031 20.398438 21.832031 19.847656 L 21.832031 20.035156 C 21.832031 20.585938 21.386719 21.027344 20.839844 21.027344 Z M 2.976562 21.027344 "/>
<path style=" stroke:none;fill-rule:nonzero;fill:rgb(100%,100%,100%);fill-opacity:0.588235;" d="M 2.976562 2.171875 C 2.425781 2.171875 1.984375 2.613281 1.984375 3.164062 L 1.984375 3.355469 C 1.984375 2.804688 2.425781 2.363281 2.976562 2.363281 L 20.839844 2.363281 C 21.386719 2.363281 21.832031 2.804688 21.832031 3.355469 L 21.832031 3.164062 C 21.832031 2.613281 21.386719 2.171875 20.839844 2.171875 Z M 2.976562 2.171875 "/>
<path style=" stroke:none;fill-rule:nonzero;fill:rgb(25.882354%,25.882354%,25.882354%);fill-opacity:1;" d="M 3.472656 5.148438 L 10.667969 5.148438 C 10.804688 5.148438 10.914062 5.261719 10.914062 5.398438 C 10.914062 5.535156 10.804688 5.644531 10.667969 5.644531 L 3.472656 5.644531 C 3.335938 5.644531 3.226562 5.535156 3.226562 5.398438 C 3.226562 5.261719 3.335938 5.148438 3.472656 5.148438 Z M 3.472656 5.148438 "/>
<path style=" stroke:none;fill-rule:nonzero;fill:rgb(25.882354%,25.882354%,25.882354%);fill-opacity:1;" d="M 3.472656 6.636719 L 10.667969 6.636719 C 10.804688 6.636719 10.914062 6.75 10.914062 6.886719 C 10.914062 7.023438 10.804688 7.132812 10.667969 7.132812 L 3.472656 7.132812 C 3.335938 7.132812 3.226562 7.023438 3.226562 6.886719 C 3.226562 6.75 3.335938 6.636719 3.472656 6.636719 Z M 3.472656 6.636719 "/>
<path style=" stroke:none;fill-rule:nonzero;fill:rgb(25.882354%,25.882354%,25.882354%);fill-opacity:1;" d="M 3.472656 8.125 L 10.667969 8.125 C 10.804688 8.125 10.914062 8.238281 10.914062 8.375 C 10.914062 8.511719 10.804688 8.621094 10.667969 8.621094 L 3.472656 8.621094 C 3.335938 8.621094 3.226562 8.511719 3.226562 8.375 C 3.226562 8.238281 3.335938 8.125 3.472656 8.125 Z M 3.472656 8.125 "/>
<path style=" stroke:none;fill-rule:nonzero;fill:rgb(25.882354%,25.882354%,25.882354%);fill-opacity:1;" d="M 3.472656 9.613281 L 10.667969 9.613281 C 10.804688 9.613281 10.914062 9.726562 10.914062 9.863281 C 10.914062 10 10.804688 10.109375 10.667969 10.109375 L 3.472656 10.109375 C 3.335938 10.109375 3.226562 10 3.226562 9.863281 C 3.226562 9.726562 3.335938 9.613281 3.472656 9.613281 Z M 3.472656 9.613281 "/>
<path style=" stroke:none;fill-rule:nonzero;fill:rgb(12.941177%,12.941177%,12.941177%);fill-opacity:1;" d="M 2.976562 2.101562 C 2.390625 2.101562 1.914062 2.578125 1.914062 3.164062 L 1.914062 20.03125 C 1.914062 20.621094 2.390625 21.097656 2.976562 21.097656 L 20.839844 21.097656 C 21.425781 21.097656 21.902344 20.621094 21.902344 20.03125 L 21.902344 3.164062 C 21.902344 2.578125 21.425781 2.101562 20.839844 2.101562 Z M 2.976562 2.242188 L 20.839844 2.242188 C 21.351562 2.242188 21.761719 2.652344 21.761719 3.164062 L 21.761719 20.03125 C 21.761719 20.546875 21.351562 20.957031 20.839844 20.957031 L 2.976562 20.957031 C 2.464844 20.957031 2.054688 20.546875 2.054688 20.03125 L 2.054688 3.164062 C 2.054688 2.652344 2.464844 2.242188 2.976562 2.242188 Z M 2.976562 2.242188 "/>
<path style=" stroke:none;fill-rule:nonzero;fill:rgb(0%,0%,0%);fill-opacity:0.196078;" d="M 12.03125 2.171875 L 12.03125 21.027344 L 11.90625 21.027344 L 11.90625 2.171875 Z M 12.03125 2.171875 "/>
<path style=" stroke:none;fill-rule:nonzero;fill:rgb(90.196079%,90.196079%,90.196079%);fill-opacity:0.588235;" d="M 11.90625 2.171875 L 11.90625 21.027344 L 11.785156 21.027344 L 11.785156 2.171875 Z M 11.90625 2.171875 "/>
<path style=" stroke:none;fill-rule:nonzero;fill:rgb(12.941177%,12.941177%,12.941177%);fill-opacity:0.992157;" d="M 11.96875 2.171875 L 11.96875 21.027344 L 11.84375 21.027344 L 11.84375 2.171875 Z M 11.96875 2.171875 "/>
<path style=" stroke:none;fill-rule:nonzero;fill:rgb(25.882354%,25.882354%,25.882354%);fill-opacity:1;" d="M 3.472656 11.101562 L 10.667969 11.101562 C 10.804688 11.101562 10.914062 11.214844 10.914062 11.351562 C 10.914062 11.488281 10.804688 11.597656 10.667969 11.597656 L 3.472656 11.597656 C 3.335938 11.597656 3.226562 11.488281 3.226562 11.351562 C 3.226562 11.214844 3.335938 11.101562 3.472656 11.101562 Z M 3.472656 11.101562 "/>
<path style=" stroke:none;fill-rule:nonzero;fill:rgb(25.882354%,25.882354%,25.882354%);fill-opacity:1;" d="M 3.472656 12.589844 L 10.667969 12.589844 C 10.804688 12.589844 10.914062 12.703125 10.914062 12.839844 C 10.914062 12.976562 10.804688 13.085938 10.667969 13.085938 L 3.472656 13.085938 C 3.335938 13.085938 3.226562 12.976562 3.226562 12.839844 C 3.226562 12.703125 3.335938 12.589844 3.472656 12.589844 Z M 3.472656 12.589844 "/>
<path style=" stroke:none;fill-rule:nonzero;fill:rgb(25.882354%,25.882354%,25.882354%);fill-opacity:1;" d="M 3.472656 14.078125 L 10.667969 14.078125 C 10.804688 14.078125 10.914062 14.191406 10.914062 14.328125 C 10.914062 14.464844 10.804688 14.574219 10.667969 14.574219 L 3.472656 14.574219 C 3.335938 14.574219 3.226562 14.464844 3.226562 14.328125 C 3.226562 14.191406 3.335938 14.078125 3.472656 14.078125 Z M 3.472656 14.078125 "/>
<path style=" stroke:none;fill-rule:nonzero;fill:rgb(25.882354%,25.882354%,25.882354%);fill-opacity:1;" d="M 3.472656 15.566406 L 10.667969 15.566406 C 10.804688 15.566406 10.914062 15.679688 10.914062 15.816406 C 10.914062 15.953125 10.804688 16.0625 10.667969 16.0625 L 3.472656 16.0625 C 3.335938 16.0625 3.226562 15.953125 3.226562 15.816406 C 3.226562 15.679688 3.335938 15.566406 3.472656 15.566406 Z M 3.472656 15.566406 "/>
<path style="fill-rule:nonzero;fill:url(#linear3);stroke-width:3;stroke-linecap:round;stroke-linejoin:miter;stroke:rgb(12.941177%,12.941177%,12.941177%);stroke-opacity:1;stroke-miterlimit:4;" d="M 201.064133 -173.92059 C 195.231356 -173.92059 190.48181 -169.254368 190.48181 -163.338267 L 190.48181 80.055157 C 190.48181 81.471688 190.648461 82.88822 190.898437 84.221426 L 211.646455 27.143543 C 214.312867 20.477513 219.645692 20.477513 222.228778 27.143543 L 242.976797 84.221426 C 243.310098 82.88822 243.393424 81.471688 243.393424 80.055157 L 243.393424 -163.338267 C 243.393424 -169.254368 238.727203 -173.92059 232.811101 -173.92059 Z M 201.064133 -173.92059 " transform="matrix(0.0468795,0,0,0.0468795,0,10.079087)"/>
<path style=" stroke:none;fill-rule:nonzero;fill:rgb(25.882354%,25.882354%,25.882354%);fill-opacity:1;" d="M 13.148438 5.148438 L 20.339844 5.148438 C 20.480469 5.148438 20.589844 5.261719 20.589844 5.398438 C 20.589844 5.535156 20.480469 5.644531 20.339844 5.644531 L 13.148438 5.644531 C 13.011719 5.644531 12.898438 5.535156 12.898438 5.398438 C 12.898438 5.261719 13.011719 5.148438 13.148438 5.148438 Z M 13.148438 5.148438 "/>
<path style=" stroke:none;fill-rule:nonzero;fill:rgb(25.882354%,25.882354%,25.882354%);fill-opacity:1;" d="M 13.148438 6.636719 L 20.339844 6.636719 C 20.480469 6.636719 20.589844 6.75 20.589844 6.886719 C 20.589844 7.023438 20.480469 7.132812 20.339844 7.132812 L 13.148438 7.132812 C 13.011719 7.132812 12.898438 7.023438 12.898438 6.886719 C 12.898438 6.75 13.011719 6.636719 13.148438 6.636719 Z M 13.148438 6.636719 "/>
<path style=" stroke:none;fill-rule:nonzero;fill:rgb(25.882354%,25.882354%,25.882354%);fill-opacity:1;" d="M 13.148438 8.125 L 20.339844 8.125 C 20.480469 8.125 20.589844 8.238281 20.589844 8.375 C 20.589844 8.511719 20.480469 8.621094 20.339844 8.621094 L 13.148438 8.621094 C 13.011719 8.621094 12.898438 8.511719 12.898438 8.375 C 12.898438 8.238281 13.011719 8.125 13.148438 8.125 Z M 13.148438 8.125 "/>
<path style=" stroke:none;fill-rule:nonzero;fill:rgb(25.882354%,25.882354%,25.882354%);fill-opacity:1;" d="M 13.148438 9.613281 L 20.339844 9.613281 C 20.480469 9.613281 20.589844 9.726562 20.589844 9.863281 C 20.589844 10 20.480469 10.109375 20.339844 10.109375 L 13.148438 10.109375 C 13.011719 10.109375 12.898438 10 12.898438 9.863281 C 12.898438 9.726562 13.011719 9.613281 13.148438 9.613281 Z M 13.148438 9.613281 "/>
<path style=" stroke:none;fill-rule:nonzero;fill:rgb(25.882354%,25.882354%,25.882354%);fill-opacity:1;" d="M 13.148438 11.101562 L 20.339844 11.101562 C 20.480469 11.101562 20.589844 11.214844 20.589844 11.351562 C 20.589844 11.488281 20.480469 11.597656 20.339844 11.597656 L 13.148438 11.597656 C 13.011719 11.597656 12.898438 11.488281 12.898438 11.351562 C 12.898438 11.214844 13.011719 11.101562 13.148438 11.101562 Z M 13.148438 11.101562 "/>
<path style=" stroke:none;fill-rule:nonzero;fill:rgb(25.882354%,25.882354%,25.882354%);fill-opacity:1;" d="M 13.148438 12.589844 L 20.339844 12.589844 C 20.480469 12.589844 20.589844 12.703125 20.589844 12.839844 C 20.589844 12.976562 20.480469 13.085938 20.339844 13.085938 L 13.148438 13.085938 C 13.011719 13.085938 12.898438 12.976562 12.898438 12.839844 C 12.898438 12.703125 13.011719 12.589844 13.148438 12.589844 Z M 13.148438 12.589844 "/>
<path style=" stroke:none;fill-rule:nonzero;fill:rgb(25.882354%,25.882354%,25.882354%);fill-opacity:1;" d="M 13.148438 14.078125 L 20.339844 14.078125 C 20.480469 14.078125 20.589844 14.191406 20.589844 14.328125 C 20.589844 14.464844 20.480469 14.574219 20.339844 14.574219 L 13.148438 14.574219 C 13.011719 14.574219 12.898438 14.464844 12.898438 14.328125 C 12.898438 14.191406 13.011719 14.078125 13.148438 14.078125 Z M 13.148438 14.078125 "/>
<path style=" stroke:none;fill-rule:nonzero;fill:rgb(25.882354%,25.882354%,25.882354%);fill-opacity:1;" d="M 13.148438 15.566406 L 20.339844 15.566406 C 20.480469 15.566406 20.589844 15.679688 20.589844 15.816406 C 20.589844 15.953125 20.480469 16.0625 20.339844 16.0625 L 13.148438 16.0625 C 13.011719 16.0625 12.898438 15.953125 12.898438 15.816406 C 12.898438 15.679688 13.011719 15.566406 13.148438 15.566406 Z M 13.148438 15.566406 "/>
</g>
</svg>

<svg xmlns="http://www.w3.org/2000/svg" width="32" height="32" viewBox="0 0 24 24"><defs><linearGradient id="a" gradientUnits="userSpaceOnUse" x1="254" y1="233.5" x2="254" y2="254.667" gradientTransform="matrix(.04688 0 0 .04688 -2.977 10.08)"><stop offset="0" stop-opacity=".275"/><stop offset="1" stop-opacity="0"/></linearGradient><radialGradient id="b" gradientUnits="userSpaceOnUse" cx="450.909" cy="189.579" fx="450.909" fy="189.579" r="21.167" gradientTransform="matrix(0 -.0586 -.10548 0 40.09 47.696)"><stop offset="0" stop-opacity=".314"/><stop offset=".222" stop-opacity=".275"/><stop offset="1" stop-opacity="0"/></radialGradient><radialGradient id="c" gradientUnits="userSpaceOnUse" cx="450.909" cy="189.579" fx="450.909" fy="189.579" r="21.167" gradientTransform="matrix(0 .0586 .10548 0 -16.275 -5.646)"><stop offset="0" stop-opacity=".314"/><stop offset=".222" stop-opacity=".275"/><stop offset="1" stop-opacity="0"/></radialGradient><radialGradient id="d" gradientUnits="userSpaceOnUse" cx="450.909" cy="189.579" fx="450.909" fy="189.579" r="21.167" gradientTransform="matrix(0 -.0586 .10548 0 -16.275 47.696)"><stop offset="0" stop-opacity=".314"/><stop offset=".222" stop-opacity=".275"/><stop offset="1" stop-opacity="0"/></radialGradient><radialGradient id="e" gradientUnits="userSpaceOnUse" cx="450.909" cy="189.579" fx="450.909" fy="189.579" r="21.167" gradientTransform="matrix(0 .0586 -.10548 0 40.09 -5.646)"><stop offset="0" stop-opacity=".314"/><stop offset=".222" stop-opacity=".275"/><stop offset="1" stop-opacity="0"/></radialGradient><linearGradient id="f" gradientUnits="userSpaceOnUse" x1="42.333" y1="32.417" x2="254" y2="32.417" gradientTransform="matrix(.04688 0 0 .04688 0 10.08)"><stop offset="0" stop-color="#eee"/><stop offset="1" stop-color="#e0e0e0"/></linearGradient><linearGradient id="g" gradientUnits="userSpaceOnUse" x1="465.667" y1="21.833" x2="254" y2="21.833" gradientTransform="matrix(.04688 0 0 .04688 0 10.08)"><stop offset="0" stop-color="#e0e0e0"/><stop offset="1" stop-color="#bdbdbd"/></linearGradient><linearGradient id="h" gradientUnits="userSpaceOnUse" x1="840" y1="1175.118" x2="840" y2="135.118" gradientTransform="matrix(.26458 0 0 .26458 -10.583 -209.708)"><stop offset="0" stop-color="#ef5350"/><stop offset="1" stop-color="#e57373"/></linearGradient></defs><path d="M3.473 21.027H20.34v.993H3.473zm0 0" fill="url(#a)"/><path d="M20.34 21.027h1.988v-.996H20.34zm0 0" fill="url(#b)"/><path d="M3.473 21.027H1.488v.993h1.985zm0 0" fill="url(#c)"/><path d="M3.473 21.027H1.488v-.996h1.985zm0 0" fill="url(#d)"/><path d="M20.34 21.027h1.988v.993H20.34zm0 0" fill="url(#e)"/><path d="M2.977 2.172H20.84c.547 0 .992.445.992.992v16.867c0 .551-.445.996-.992.996H2.977a.994.994 0 0 1-.993-.996V3.164c0-.547.446-.992.993-.992zm0 0" fill="url(#f)"/><path d="M11.906 2.172v18.855h8.934a.994.994 0 0 0 .992-.996V3.164a.991.991 0 0 0-.992-.992zm0 0" fill="url(#g)"/><path d="M2.977 21.027a.989.989 0 0 1-.993-.992v-.187c0 .55.442.992.993.992H20.84a.991.991 0 0 0 .992-.992v.187c0 .55-.445.992-.992.992zm0 0" fill-opacity=".196"/><path d="M2.977 2.172a.989.989 0 0 0-.993.992v.191c0-.55.442-.992.993-.992H20.84c.547 0 .992.442.992.992v-.19a.991.991 0 0 0-.992-.993zm0 0" fill="#fff" fill-opacity=".588"/><path d="M3.473 5.148h7.195a.248.248 0 0 1 0 .497H3.473a.248.248 0 0 1 0-.496zm0 0M3.473 6.637h7.195a.248.248 0 0 1 0 .496H3.473a.248.248 0 0 1 0-.496zm0 0M3.473 8.125h7.195a.248.248 0 0 1 0 .496H3.473a.248.248 0 0 1 0-.496zm0 0M3.473 9.613h7.195a.248.248 0 0 1 0 .496H3.473a.248.248 0 0 1 0-.496zm0 0" fill="#424242"/><path d="M2.977 2.102c-.586 0-1.063.476-1.063 1.062v16.867c0 .59.477 1.067 1.063 1.067H20.84c.586 0 1.062-.477 1.062-1.067V3.164c0-.586-.476-1.062-1.062-1.062zm0 .14H20.84c.512 0 .922.41.922.922v16.867a.92.92 0 0 1-.922.926H2.977a.92.92 0 0 1-.922-.926V3.164c0-.512.41-.922.922-.922zm0 0" fill="#212121"/><path d="M12.031 2.172v18.855h-.125V2.172zm0 0" fill-opacity=".196"/><path d="M11.906 2.172v18.855h-.12V2.172zm0 0" fill="#e6e6e6" fill-opacity=".588"/><path d="M11.969 2.172v18.855h-.125V2.172zm0 0" fill="#212121" fill-opacity=".992"/><path d="M3.473 11.102h7.195a.248.248 0 0 1 0 .496H3.473a.248.248 0 0 1 0-.496zm0 0M3.473 12.59h7.195a.248.248 0 0 1 0 .496H3.473a.248.248 0 0 1 0-.496zm0 0M3.473 14.078h7.195a.248.248 0 0 1 0 .496H3.473a.248.248 0 0 1 0-.496zm0 0M3.473 15.566h7.195a.248.248 0 0 1 0 .496H3.473a.248.248 0 0 1 0-.496zm0 0" fill="#424242"/><path d="M201.064-173.92a10.544 10.544 0 0 0-10.582 10.582V80.055c0 1.417.166 2.833.416 4.166l20.748-57.077c2.667-6.666 8-6.666 10.583 0l20.748 57.077c.333-1.333.416-2.75.416-4.166v-243.393c0-5.916-4.666-10.583-10.582-10.583zm0 0" transform="matrix(.04688 0 0 .04688 0 10.08)" fill="url(#h)" stroke-width="3" stroke-linecap="round" stroke="#212121"/><path d="M13.148 5.148h7.192c.14 0 .25.114.25.25 0 .137-.11.247-.25.247h-7.192a.248.248 0 0 1-.25-.247c0-.136.114-.25.25-.25zm0 0M13.148 6.637h7.192c.14 0 .25.113.25.25 0 .136-.11.246-.25.246h-7.192a.248.248 0 0 1-.25-.246c0-.137.114-.25.25-.25zm0 0M13.148 8.125h7.192c.14 0 .25.113.25.25s-.11.246-.25.246h-7.192a.248.248 0 0 1-.25-.246c0-.137.114-.25.25-.25zm0 0M13.148 9.613h7.192c.14 0 .25.114.25.25 0 .137-.11.246-.25.246h-7.192a.248.248 0 0 1-.25-.246c0-.136.114-.25.25-.25zm0 0M13.148 11.102h7.192c.14 0 .25.113.25.25 0 .136-.11.246-.25.246h-7.192a.248.248 0 0 1-.25-.246c0-.137.114-.25.25-.25zm0 0M13.148 12.59h7.192c.14 0 .25.113.25.25s-.11.246-.25.246h-7.192a.248.248 0 0 1-.25-.246c0-.137.114-.25.25-.25zm0 0M13.148 14.078h7.192c.14 0 .25.113.25.25s-.11.246-.25.246h-7.192a.248.248 0 0 1-.25-.246c0-.137.114-.25.25-.25zm0 0M13.148 15.566h7.192c.14 0 .25.114.25.25 0 .137-.11.246-.25.246h-7.192a.248.248 0 0 1-.25-.246c0-.136.114-.25.25-.25zm0 0" fill="#424242"/></svg>
